preview/assets/images/responsive.svg

<svg width="29" height="48" viewBox="0 0 29 48" fill="none" xmlns="http://www.w3.org/2000/svg">
<path fill-rule="evenodd" clip-rule="evenodd" d="M2 18H9V30H2V18ZM0 18C0 16.8954 0.895431 16 2 16H9C10.1046 16 11 16.8954 11 18V30C11 31.1046 10.1046 32 9 32H2C0.895431 32 0 31.1046 0 30V18ZM7 20H4V28H7V20Z" fill="white"/>
<path fill-rule="evenodd" clip-rule="evenodd" d="M26 18H14V26H26V18ZM28 26V18C28 16.8954 27.1046 16 26 16H14C12.8954 16 12 16.8954 12 18V26H11V28C11 28.5523 11.4477 29 12 29H28C28.5523 29 29 28.5523 29 28V26H28ZM16 20H24V24H16V20Z" fill="white"/>
<path fill-rule="evenodd" clip-rule="evenodd" d="M26 2H14V10H26V2ZM28 10V2C28 0.895431 27.1046 0 26 0H14C12.8954 0 12 0.895431 12 2V10H11V12C11 12.5523 11.4477 13 12 13H28C28.5523 13 29 12.5523 29 12V10H28ZM16 4H24V8H16V4Z" fill="#8E91A6"/>
<path fill-rule="evenodd" clip-rule="evenodd" d="M2 2H9V14H2V2ZM0 2C0 0.895431 0.895431 0 2 0H9C10.1046 0 11 0.895431 11 2V14C11 15.1046 10.1046 16 9 16H2C0.895431 16 0 15.1046 0 14V2ZM7 4H4V12H7V4Z" fill="#8E91A6"/>
<path fill-rule="evenodd" clip-rule="evenodd" d="M2 34H9V46H2V34ZM0 34C0 32.8954 0.895431 32 2 32H9C10.1046 32 11 32.8954 11 34V46C11 47.1046 10.1046 48 9 48H2C0.895431 48 0 47.1046 0 46V34ZM7 36H4V44H7V36Z" fill="#FF7C83"/>
<path fill-rule="evenodd" clip-rule="evenodd" d="M26 34H14V42H26V34ZM28 42V34C28 32.8954 27.1046 32 26 32H14C12.8954 32 12 32.8954 12 34V42H11V44C11 44.5523 11.4477 45 12 45H28C28.5523 45 29 44.5523 29 44V42H28ZM16 36H24V40H16V36Z" fill="#FF7C83"/>
</svg>

<svg width="29" height="48" fill="none" xmlns="http://www.w3.org/2000/svg"><path fill-rule="evenodd" clip-rule="evenodd" d="M2 18h7v12H2V18zm-2 0a2 2 0 012-2h7a2 2 0 012 2v12a2 2 0 01-2 2H2a2 2 0 01-2-2V18zm7 2H4v8h3v-8zM26 18H14v8h12v-8zm2 8v-8a2 2 0 00-2-2H14a2 2 0 00-2 2v8h-1v2a1 1 0 001 1h16a1 1 0 001-1v-2h-1zm-12-6h8v4h-8v-4z" fill="#fff"/><path fill-rule="evenodd" clip-rule="evenodd" d="M26 2H14v8h12V2zm2 8V2a2 2 0 00-2-2H14a2 2 0 00-2 2v8h-1v2a1 1 0 001 1h16a1 1 0 001-1v-2h-1zM16 4h8v4h-8V4zM2 2h7v12H2V2zM0 2a2 2 0 012-2h7a2 2 0 012 2v12a2 2 0 01-2 2H2a2 2 0 01-2-2V2zm7 2H4v8h3V4z" fill="#8E91A6"/><path fill-rule="evenodd" clip-rule="evenodd" d="M2 34h7v12H2V34zm-2 0a2 2 0 012-2h7a2 2 0 012 2v12a2 2 0 01-2 2H2a2 2 0 01-2-2V34zm7 2H4v8h3v-8zM26 34H14v8h12v-8zm2 8v-8a2 2 0 00-2-2H14a2 2 0 00-2 2v8h-1v2a1 1 0 001 1h16a1 1 0 001-1v-2h-1zm-12-6h8v4h-8v-4z" fill="#FF7C83"/></svg>
